X:193 
T:Sky Over Fenit* (reel), The
F:file ID: cre.5/193sky_of
B:CRE5.135 (gan ainm)
M:4/4
Q:180
R:reel
K:D
"A modal"
ABcd e2dc|B2gB aBgB|ABcd e2dc|B2gB BAA2:|
eaag a2ba|geef g2ag|eaag a2ba|gedB BAA2|
eaag a2ba|geef g2ag|eaag e3d|B2gB BAA2|]

%%%

